src/_assets/sidebar/root-icon.svg

<svg width="24" height="24" viewBox="0 0 24 24" fill="none" xmlns="http://www.w3.org/2000/svg">
<path d="M15.6999 4.30176C17.6574 4.31265 18.7175 4.39946 19.409 5.091C20.1998 5.8818 20.1998 7.15458 20.1998 9.70014V15.1001C20.1998 17.6456 20.1998 18.9184 19.409 19.7092C18.6182 20.5 17.3454 20.5 14.7999 20.5H9.39994C6.85438 20.5 5.58161 20.5 4.7908 19.7092C4 18.9184 4 17.6456 4 15.1001V9.70013C4 7.15458 4 5.8818 4.7908 5.091C5.48234 4.39946 6.54245 4.31265 8.49995 4.30176" stroke="#485F7D" stroke-width="1.4"/>
<path d="M8.5 13.2998H15.6999" stroke="#485F7D" stroke-width="1.4" stroke-linecap="round"/>
<path d="M7.59961 10.1499H16.5995" stroke="#485F7D" stroke-width="1.4" stroke-linecap="round"/>
<path d="M9.40039 16.45H14.8003" stroke="#485F7D" stroke-width="1.4" stroke-linecap="round"/>
<path d="M8.5 3.84999C8.5 3.10441 9.10441 2.5 9.84999 2.5H14.3499C15.0955 2.5 15.6999 3.10441 15.6999 3.84999V4.74998C15.6999 5.49555 15.0955 6.09996 14.3499 6.09996H9.84999C9.10441 6.09996 8.5 5.49555 8.5 4.74998V3.84999Z" stroke="#485F7D" stroke-width="1.4"/>
</svg>

<svg xmlns="http://www.w3.org/2000/svg" width="24" height="24" fill="none"><path stroke="#485F7D" stroke-width="1.4" d="M15.7 4.302c1.957.01 3.018.097 3.709.789.79.79.79 2.064.79 4.61v5.4c0 2.545 0 3.817-.79 4.608s-2.064.791-4.61.791H9.4c-2.545 0-3.817 0-4.608-.79C4 18.917 4 17.645 4 15.1V9.7c0-2.545 0-3.818.79-4.609.692-.692 1.752-.778 3.71-.79"/><path stroke="#485F7D" stroke-linecap="round" stroke-width="1.4" d="M8.5 13.3h7.2m-8.1-3.15h9m-7.2 6.3h5.4"/><path stroke="#485F7D" stroke-width="1.4" d="M8.5 3.85c0-.746.604-1.35 1.35-1.35h4.5c.745 0 1.35.604 1.35 1.35v.9a1.35 1.35 0 01-1.35 1.35h-4.5A1.35 1.35 0 018.5 4.75z"/></svg>
